X: 4344
T: Lady Balhaven's Delight
%R: jig, air
N: This is version 2, for ABC software that understands voice overlays.
B: Niel Gow & Sons "A Fourth Collection of Strathspey Reels, etc." v.4 p.34 #4 (and top 4 staves of p.35)
Z: 2022 John Chambers <jc:trillian.mit.edu>
M: 6/8
L: 1/8
Q: "Slowish"
K: A
% - - - - - - - - - -
V: 1 staves=2
E |\
[A2C2][AC] [A2C2]c | {c}B2G E2G | A2E c2A | [B3-G3] [B2G2]c ||\
[A2C2][AC] [A2B,2]F | ~G2A Bcd | !p!TF2B {A}GFE | [A3E3C3] [A2E2C2] :|
e |\
{g}a2e (ag)b | a2f {f}e2c | A2A Tc2e | f2B B2g ||\
a2e (ag).b | {g}a2f {f}e2c | E2E EFG | {G}[A3E3C3] [A2E2C2] (e//f//g/) |
a2e (ag).b | {g}a2f {f}e2c | A2A ~c2e | f2B Bcd ||\
~c2e e2a | d2f f2b | (ec)A EFG | {G}[A3E3C3] [A2E2C2] |]
% - - - - - - - - - -
% Voice 2 preserves the staff layout in the book.
V: 2 clef=bass middle=d
z |\
Ace Ace & A3 A3 | GBe EBe &G3 E3 | Ace Ace & A3 A3 | EBe EBe & E3 E3 ||\
cea ^dfb & c3 ^d3 | egb ega & e3 e3 | !p!dfb egb &d3 e3 | aec A2 :|
z |\
ac'e' bd'e' & a3 e3 | ac'e' ac'e' & a3 a3 | cea cea & c3 c3 | dfb egb & d3 e3 ||\
ac'e' bd'e' & a3 b3 | ac'e' ac'e' & a3 a3 | c2c cdB | Ace a2z |
ac'e' bd'e' & a3 b3 | ac'e' ac'e' & a3 a3 | cea cea & c3 c3 | dfb egb & d3 e3 ||\
cea cea & c3 c3 | dfa dfb & d3 d3 | eac' egb & e3 e3 | aec A2 |]
